img/icons/search-icon.svg

<svg width="17" height="17" viewBox="0 0 17 17" fill="none" xmlns="http://www.w3.org/2000/svg">
<path d="M7.66056 0.528809C3.73491 0.528809 0.537109 3.72661 0.537109 7.65227C0.537109 11.5779 3.73491 14.7819 7.66056 14.7819C9.33733 14.7819 10.8794 14.1943 12.0982 13.2187L15.0654 16.1843C15.2152 16.3279 15.4152 16.4071 15.6226 16.4049C15.83 16.4028 16.0283 16.3196 16.1751 16.173C16.3219 16.0264 16.4054 15.8282 16.4078 15.6208C16.4102 15.4134 16.3313 15.2133 16.188 15.0634L13.2208 12.0962C14.1972 10.8755 14.7856 9.33098 14.7856 7.65227C14.7856 3.72661 11.5862 0.528809 7.66056 0.528809V0.528809ZM7.66056 2.11217C10.7305 2.11217 13.2007 4.58232 13.2007 7.65227C13.2007 10.7222 10.7305 13.1986 7.66056 13.1986C4.59061 13.1986 2.12044 10.7222 2.12044 7.65227C2.12044 4.58232 4.59061 2.11217 7.66056 2.11217Z" fill="#E8ECF4"/>
</svg>

<svg width="17" height="17" fill="none" xmlns="http://www.w3.org/2000/svg"><path d="M7.66.529C3.736.529.538 3.727.538 7.652c0 3.926 3.198 7.13 7.124 7.13a7.08 7.08 0 004.437-1.563l2.967 2.965a.793.793 0 001.123-1.12l-2.967-2.968a7.094 7.094 0 001.565-4.444c0-3.925-3.2-7.123-7.125-7.123zm0 1.583c3.07 0 5.54 2.47 5.54 5.54S10.73 13.2 7.66 13.2a5.532 5.532 0 01-5.54-5.547c0-3.07 2.47-5.54 5.54-5.54z" fill="#E8ECF4"/></svg>
